X: 98
T:Tienne de la Barret
M:2/4
L:1/16
R:Scottiche
O:France
A:Massif Central
K:G
DEFD G4|AGFB A4|DEFD G2AB|AGFA G4:|
|:dedc A2AB|cdcB A4|G2FG A2AB|1cABc d4:|2cAGF G4||
Valses
W:
W: From "Falaleiro" http://home.t-online.de/home/pheld/homepage.htm

